X: 1
T:Lime Hill, The
M:4/4
L:1/8
R:Strathspey
K:A
a|"A"e<cc>B "D"A<FF>A|"A"E<CE>F A2 A>B|"A"c>Bc>e "D"f>ef<a|"A"e<cc>A "E"
B2 B<a|
"A"e<cc>B "D"A<FF>A|"A"E<CE>F A2 A>B|"A"c>Bc<e "D"f>ef>a|"E"e<cB>c "A"A2
 A|
|"A"c<ee>f e<ca>e|"A"c<ee>f e2 e>a|"F#m"c<ff>a f>e a/g/f/e/|c<ff>g f2 f>
a|"A"c<ee>f e<ca>e|
"A"c<ee>f e2 e>g|"F#m"(3agf "A"(3edc "D"(3dfd "A"(3cac|"E"B<EG>B "A"A2 A
||
